Adwaita++/actions/22/timeline-extract.svg

<svg fill="none" height="22" viewBox="0 0 22 22" width="22" xmlns="http://www.w3.org/2000/svg">
  <path d="m7.41421 9.58579 1.41422 1.41421-1.41422 1.4142 1.41422 1.4142 1.41417-1.4142 1.4142 1.4142 1.4143-1.4142-1.4143-1.4142 1.4143-1.41421-1.4143-1.41422-1.4142 1.41422-1.41417-1.41422z" fill="#e01b24"/>
  <g fill="#444">
    <path d="m19 7.00002v7.99998h-.5052-.0523c-.0975.0008-.1939-.0311-.2787-.1l-3.9025-3.2c-.1732-.1375-.2613-.4188-.2613-.7s.0881-.5625.2613-.7l3.9025-3.19998c.0848-.069.1812-.10104.2787-.1h.0523z"/>
    <path d="m6 8h-3v6h3z"/>
  </g>
</svg>

<svg xmlns="http://www.w3.org/2000/svg" fill="none" width="22" height="22" viewBox="0 0 22 22">
 <path fill="#E01B24" d="M7.41421 9.58579L8.82843 11L7.41421 12.4142L8.82843 13.8284L10.2426 12.4142L11.6568 13.8284L13.0711 12.4142L11.6568 11L13.0711 9.58579L11.6568 8.17157L10.2426 9.58579L8.82843 8.17157L7.41421 9.58579Z"/>
 <path fill="#444" d="M19 7.00002V15H18.4948H18.4425C18.345 15.0008 18.2486 14.9689 18.1638 14.9L14.2613 11.7C14.0881 11.5625 14 11.2812 14 11C14 10.7188 14.0881 10.4375 14.2613 10.3L18.1638 7.10002C18.2486 7.03102 18.345 6.99898 18.4425 7.00002H18.4948H19Z"/>
 <path fill="#444" d="M6 8H3V14H6V8Z"/>
</svg>
